svg/free/library-add.svg

<svg version="1.1" xmlns="http://www.w3.org/2000/svg" width="24" height="24" viewBox="0 0 24 24">
<title>library-add</title>
<path d="M2.25 21.75v-15h-1.5v15.375c0 0.621 0.504 1.125 1.125 1.125v0h15.375v-1.5h-15z"></path>
<path d="M6.75 18.75h-1.5v-15h-1.5v15.375c0 0.621 0.504 1.125 1.125 1.125v0h15.375v-1.5h-13.5z"></path>
<path d="M22.125 0.75h-14.25c-0.621 0-1.125 0.504-1.125 1.125v0 14.25c0 0.621 0.504 1.125 1.125 1.125v0h14.25c0.621 0 1.125-0.504 1.125-1.125v0-14.25c0-0.621-0.504-1.125-1.125-1.125v0zM21.75 15.75h-13.5v-13.5h13.5z"></path>
<path d="M14.25 13.5h1.5v-3.938h3.938v-1.5h-3.938v-3.938h-1.5v3.938h-3.938v1.5h3.938v3.938z"></path>
</svg>

<svg xmlns="http://www.w3.org/2000/svg" width="24" height="24" viewBox="0 0 24 24"><path d="M2.25 21.75v-15H.75v15.375c0 .621.504 1.125 1.125 1.125H17.25v-1.5h-15z"/><path d="M6.75 18.75h-1.5v-15h-1.5v15.375c0 .621.504 1.125 1.125 1.125H20.25v-1.5H6.75z"/><path d="M22.125.75H7.875c-.621 0-1.125.504-1.125 1.125v14.25c0 .621.504 1.125 1.125 1.125h14.25c.621 0 1.125-.504 1.125-1.125V1.875c0-.621-.504-1.125-1.125-1.125zm-.375 15H8.25V2.25h13.5z"/><path d="M14.25 13.5h1.5V9.562h3.938v-1.5H15.75V4.124h-1.5v3.938h-3.938v1.5h3.938V13.5z"/></svg>
